outputs/icons/enterprise/barcode_scanner_down_round.svg

<svg xmlns="http://www.w3.org/2000/svg" width="1200" height="1200" fill="none"><path fill="#000" d="M912.5 725 600 1100 287.5 725zM225 850H100V100h125zM1100 850H975V100h125zM381.25 631.25H287.5V100h93.75zM506.25 631.25h-62.5V100h62.5zM631.25 631.25h-62.5V100h62.5zM787.5 631.25h-93.75V100h93.75zM912.5 631.25H850V100h62.5z"/></svg>

<svg width="1200" height="1200" viewBox="0 0 1200 1200" fill="none" xmlns="http://www.w3.org/2000/svg"><path d="M912.5 725L600 1100L287.5 725H912.5Z" fill="black"/><path d="M225 850H100V100H225V850Z" fill="black"/><path d="M1100 850H975V100H1100V850Z" fill="black"/><path d="M381.25 631.25H287.5V100H381.25V631.25Z" fill="black"/><path d="M506.25 631.25H443.75V100H506.25V631.25Z" fill="black"/><path d="M631.25 631.25H568.75V100H631.25V631.25Z" fill="black"/><path d="M787.5 631.25H693.75V100H787.5V631.25Z" fill="black"/><path d="M912.5 631.25H850V100H912.5V631.25Z" fill="black"/></svg>
